img/main-page/our-principles/02.svg

<svg width="80" height="80" viewBox="0 0 80 80" fill="none" xmlns="http://www.w3.org/2000/svg">
<path d="M31 13C29.9062 13 29 13.9062 29 15V15.4727C22.8359 16.8477 18.1992 22.1719 18.0547 28.7031C16.8867 29.4023 16 30.543 16 32V35H18V38.5469H18.0039C18.0117 39.1133 18.1719 39.5586 18.3008 40C18.3672 40.2305 18.4336 40.4414 18.4727 40.5977C18.5156 40.7539 18.5195 40.9102 18.5195 40.75C18.5195 42.0039 19.5859 43 20.8242 43H21.0938C21.25 46.168 22.7305 48.9766 25 50.875V54.168C23.5625 54.5078 20.3633 55.3398 17.125 56.6367C14.9531 57.5078 12.7578 58.5859 11.043 59.9258C9.32422 61.2656 8 62.9492 8 65V70H56V65C56 63.8945 55.6055 62.8984 54.9805 62H72V58.1992C72 56.4414 70.9102 54.9766 69.5156 53.7734C68.1211 52.5703 66.3477 51.5703 64.5898 50.7383C61.4023 49.2383 58.5664 48.4102 58 48.25V47.0156C60.2188 45.4922 61.6914 42.9805 61.8906 40.1133H62.0273C63.1289 40.1133 64.0781 39.2266 64.0781 38.1055C64.0781 38.2852 64.0781 38.1562 64.1094 38.0312C64.1445 37.9102 64.1953 37.7422 64.25 37.5586C64.3398 37.2578 64.4297 36.9336 64.4688 36.5469H65V33H67V30C67 28.5195 66.1758 27.1797 64.8945 26.4883C64.2812 21.6133 60.7422 17.6055 56 16.3867V16C56 14.8984 55.1016 14 54 14H52C50.8984 14 50 14.8984 50 16V16.3906C48.3242 16.8203 46.8008 17.6055 45.5 18.6484C45.9062 19.1797 46.2891 19.7305 46.6289 20.3047C47.6367 19.4727 48.8164 18.8359 50.1055 18.4453C50.2734 18.7852 50.6211 19 51 19C51.543 19 51.9883 18.5664 52 18.0234V16H54V18.0234C54.0156 18.5664 54.457 19 55 19C55.3789 19 55.7266 18.7812 55.8945 18.4414C59.4141 19.5039 62.0625 22.4258 62.7852 26.0234C62.3281 26.125 62 26.5312 62 27C62 27.5508 62.4492 28 63 28C63.0742 28 63.1484 27.9922 63.2188 27.9727L63.6367 28.1172C64.4531 28.3945 65 29.1484 65 30V31H51V33H60V36.8906L61.3359 36.1836C61.3594 36.1719 61.3828 36.1602 61.4102 36.1562C61.4961 36.1406 61.6289 36.125 61.7617 36.1133C61.8906 36.1016 62.0195 36.0898 62.1172 36.082C62.168 36.082 62.207 36.0781 62.2344 36.0781H62.2383C62.4141 36.0781 62.5 36.1797 62.5 36.2852C62.5 36.2422 62.4336 36.6484 62.332 36.9922C62.2812 37.1641 62.2266 37.3398 62.1836 37.5117C62.1367 37.6797 62.0781 37.7852 62.0781 38.1055C62.0781 38.1016 62.0898 38.1133 62.0273 38.1133H60V39.5C60 43.0039 57.5586 45.8672 54.25 46.457L53.9688 46.5078L53.7539 46.7031C53.543 46.8906 53.2891 47 53 47C52.7109 47 52.457 46.8906 52.2461 46.7031L52.0312 46.5078L51.75 46.457C51.1758 46.3555 50.5742 46.2539 50 46.1562V46H48V49.9492L48.1055 50.1602C48.1055 50.1602 49.6094 53 53 53C56.1562 53 57.6172 50.625 57.8125 50.2852C58.7227 50.5547 61.0117 51.2656 63.7344 52.5469C65.3945 53.332 67.043 54.2812 68.2109 55.2891C69.3789 56.2969 70 57.2969 70 58.1992V60H53.0469C53.0195 59.9766 52.9883 59.9492 52.957 59.9258C51.2422 58.5859 49.0469 57.5078 46.875 56.6367C43.6367 55.3398 40.4375 54.5078 39 54.168V50.875C41.2695 48.9766 42.75 46.168 42.9062 43H43.1758C44.4141 43 45.4805 42.0039 45.4805 40.75C45.4805 40.9102 45.4844 40.7539 45.5273 40.5977C45.5664 40.4414 45.6328 40.2305 45.6992 40C45.8281 39.5586 45.9883 39.1133 45.9961 38.5469H46V35H48V32C48 30.5469 47.1133 29.4023 45.9492 28.707C45.8047 22.1719 41.1641 16.8477 35 15.4727V15C35 13.9062 34.0938 13 33 13H31ZM31 15H33V17.0273C33.0156 17.5664 33.457 18 34 18C34.4062 18 34.7734 17.7539 34.9258 17.375C39.8281 18.6016 43.5273 22.8242 43.9531 28C43.4219 28.0273 43 28.4648 43 29C43 29.5508 43.4492 30 44 30C44.0742 30 44.1523 29.9922 44.2227 29.9727L44.6523 30.1211C45.4375 30.3945 46 31.1172 46 32V33H18V32C18 31.1211 18.5625 30.3984 19.3477 30.125L19.7734 29.9727C19.8477 29.9922 19.9219 30 20 30C20.5508 30 21 29.5508 21 29C21 28.4648 20.5781 28.0273 20.0469 28C20.4727 22.8242 24.1719 18.6055 29.0742 17.375C29.2266 17.7539 29.5938 18 30 18C30.543 18 30.9844 17.5664 31 17.0273V15ZM30 20C29.4492 20 29 20.4492 29 21C29 21.5508 29.4492 22 30 22C30.5508 22 31 21.5508 31 21C31 20.4492 30.5508 20 30 20ZM34 20C33.4492 20 33 20.4492 33 21C33 21.5508 33.4492 22 34 22C34.5508 22 35 21.5508 35 21C35 20.4492 34.5508 20 34 20ZM51 21C50.4492 21 50 21.4492 50 22C50 22.5508 50.4492 23 51 23C51.5508 23 52 22.5508 52 22C52 21.4492 51.5508 21 51 21ZM55 21C54.4492 21 54 21.4492 54 22C54 22.5508 54.4492 23 55 23C55.5508 23 56 22.5508 56 22C56 21.4492 55.5508 21 55 21ZM30 24C29.4492 24 29 24.4492 29 25C29 25.5508 29.4492 26 30 26C30.5508 26 31 25.5508 31 25C31 24.4492 30.5508 24 30 24ZM34 24C33.4492 24 33 24.4492 33 25C33 25.5508 33.4492 26 34 26C34.5508 26 35 25.5508 35 25C35 24.4492 34.5508 24 34 24ZM59 26C58.4492 26 58 26.4492 58 27C58 27.5508 58.4492 28 59 28C59.5508 28 60 27.5508 60 27C60 26.4492 59.5508 26 59 26ZM24 28C23.4492 28 23 28.4492 23 29C23 29.5508 23.4492 30 24 30C24.5508 30 25 29.5508 25 29C25 28.4492 24.5508 28 24 28ZM40 28C39.4492 28 39 28.4492 39 29C39 29.5508 39.4492 30 40 30C40.5508 30 41 29.5508 41 29C41 28.4492 40.5508 28 40 28ZM62 33H63V34.2188C62.7578 34.1289 62.5039 34.0781 62.2383 34.0781C62.1289 34.0781 62.1602 34.0781 62.1211 34.0781C62.0898 34.082 62.0469 34.0859 62 34.0898V33ZM20 35H21V36.0312C20.9531 36.0273 20.8984 36.0195 20.8594 36.0156C20.793 36.0117 20.7383 36.0078 20.6953 36.0039C20.6523 36.0039 20.6758 36 20.5625 36C20.3711 36 20.1836 36.0273 20 36.0664V35ZM23 35H41V38.8438L42.3438 38.1406C42.3633 38.1289 42.4141 38.1094 42.4648 38.0977C42.5703 38.082 42.7227 38.0625 42.875 38.0469C43.0273 38.0352 43.1758 38.0195 43.293 38.0117C43.3477 38.0078 43.3945 38.0039 43.4258 38C43.4609 38 43.5352 38 43.4375 38C43.7812 38 44 38.2344 44 38.5C44 38.5156 43.9062 39.0078 43.7812 39.4375C43.7148 39.6562 43.6523 39.8711 43.5938 40.0742C43.5391 40.2773 43.4805 40.4141 43.4805 40.75C43.4805 40.875 43.3789 41 43.1758 41H41V42.4727C41 46.9102 37.8008 50.5742 33.5898 51.3242L33.3047 51.375L33.0938 51.5703C32.793 51.8398 32.4219 52 32 52C31.5781 52 31.207 51.8398 30.9062 51.5703L30.6953 51.375L30.4102 51.3242C26.1992 50.5742 23 46.9141 23 42.4727V41H20.8242C20.6211 41 20.5195 40.875 20.5195 40.75C20.5195 40.4141 20.4609 40.2773 20.4062 40.0742C20.3477 39.8711 20.2852 39.6562 20.2188 39.4375C20.0938 39.0078 20 38.5156 20 38.5C20 38.2344 20.2188 38 20.5625 38C20.4648 38 20.5391 38 20.5703 38C20.6016 38.0039 20.6523 38.0078 20.707 38.0117C20.8242 38.0195 20.9727 38.0352 21.125 38.0469C21.2773 38.0625 21.4297 38.082 21.5352 38.0977C21.5898 38.1094 21.6523 38.1367 21.668 38.1406L23 38.8438V35ZM43 35H44V36.0664C43.8164 36.0273 43.6289 36 43.4375 36C43.3242 36 43.3477 36.0039 43.3047 36.0039C43.2617 36.0078 43.207 36.0117 43.1406 36.0156C43.1016 36.0195 43.043 36.0273 43 36.0312V35ZM56.5 35C55.6719 35 55 35.6719 55 36.5C55 37.3281 55.6719 38 56.5 38C57.3281 38 58 37.3281 58 36.5C58 35.6719 57.3281 35 56.5 35ZM27.5 38C26.6719 38 26 38.6719 26 39.5C26 40.3281 26.6719 41 27.5 41C28.3281 41 29 40.3281 29 39.5C29 38.6719 28.3281 38 27.5 38ZM36.5 38C35.6719 38 35 38.6719 35 39.5C35 40.3281 35.6719 41 36.5 41C37.3281 41 38 40.3281 38 39.5C38 38.6719 37.3281 38 36.5 38ZM56 48.0391V49.4023C55.8828 49.6328 55.1445 51 53 51C50.8555 51 50.1172 49.6328 50 49.4023V48.1875C50.4766 48.2656 50.7305 48.3086 51.1719 48.3867C51.6836 48.7578 52.3125 49 53 49C53.6992 49 54.3359 48.7539 54.8516 48.3711C55.2461 48.2852 55.6289 48.1719 56 48.0391ZM27 52.1992C27.8711 52.6484 28.8047 52.9922 29.7969 53.1953C30.4062 53.6719 31.1562 54 32 54C32.8438 54 33.5938 53.6719 34.2031 53.1953C35.1953 52.9922 36.1289 52.6484 37 52.1992V55.6562C36.8789 55.8984 35.5781 58.4023 32 58.4023C28.4219 58.4023 27.1211 55.8984 27 55.6562V52.1992ZM53 56C52.4492 56 52 56.4492 52 57C52 57.5508 52.4492 58 53 58C53.5508 58 54 57.5508 54 57C54 56.4492 53.5508 56 53 56ZM57 56C56.4492 56 56 56.4492 56 57C56 57.5508 56.4492 58 57 58C57.5508 58 58 57.5508 58 57C58 56.4492 57.5508 56 57 56ZM61 56C60.4492 56 60 56.4492 60 57C60 57.5508 60.4492 58 61 58C61.5508 58 62 57.5508 62 57C62 56.4492 61.5508 56 61 56ZM65 56C64.4492 56 64 56.4492 64 57C64 57.5508 64.4492 58 65 58C65.5508 58 66 57.5508 66 57C66 56.4492 65.5508 56 65 56ZM25.0117 56.2266L25.1055 56.418C25.1055 56.418 27.1797 60.4023 32 60.4023C36.8203 60.4023 38.8945 56.418 38.8945 56.418L38.9883 56.2266C40.5078 56.6016 43.2773 57.3477 46.125 58.4922C48.2031 59.3242 50.2578 60.3555 51.7305 61.5C53.1992 62.6484 54 63.8281 54 65V68H10V65C10 63.8281 10.8008 62.6484 12.2695 61.5C13.7422 60.3555 15.7969 59.3242 17.875 58.4922C20.7227 57.3477 23.4922 56.6016 25.0117 56.2266ZM14 64C13.4492 64 13 64.4492 13 65C13 65.5508 13.4492 66 14 66C14.5508 66 15 65.5508 15 65C15 64.4492 14.5508 64 14 64ZM18 64C17.4492 64 17 64.4492 17 65C17 65.5508 17.4492 66 18 66C18.5508 66 19 65.5508 19 65C19 64.4492 18.5508 64 18 64ZM22 64C21.4492 64 21 64.4492 21 65C21 65.5508 21.4492 66 22 66C22.5508 66 23 65.5508 23 65C23 64.4492 22.5508 64 22 64ZM26 64C25.4492 64 25 64.4492 25 65C25 65.5508 25.4492 66 26 66C26.5508 66 27 65.5508 27 65C27 64.4492 26.5508 64 26 64ZM30 64C29.4492 64 29 64.4492 29 65C29 65.5508 29.4492 66 30 66C30.5508 66 31 65.5508 31 65C31 64.4492 30.5508 64 30 64ZM34 64C33.4492 64 33 64.4492 33 65C33 65.5508 33.4492 66 34 66C34.5508 66 35 65.5508 35 65C35 64.4492 34.5508 64 34 64ZM38 64C37.4492 64 37 64.4492 37 65C37 65.5508 37.4492 66 38 66C38.5508 66 39 65.5508 39 65C39 64.4492 38.5508 64 38 64ZM42 64C41.4492 64 41 64.4492 41 65C41 65.5508 41.4492 66 42 66C42.5508 66 43 65.5508 43 65C43 64.4492 42.5508 64 42 64ZM46 64C45.4492 64 45 64.4492 45 65C45 65.5508 45.4492 66 46 66C46.5508 66 47 65.5508 47 65C47 64.4492 46.5508 64 46 64ZM50 64C49.4492 64 49 64.4492 49 65C49 65.5508 49.4492 66 50 66C50.5508 66 51 65.5508 51 65C51 64.4492 50.5508 64 50 64Z" fill="#E4B564"/>
</svg>

<svg width="80" height="80" fill="none" xmlns="http://www.w3.org/2000/svg"><path d="M31 13c-1.094 0-2 .906-2 2v.473c-6.164 1.375-10.8 6.699-10.945 13.23C16.887 29.403 16 30.543 16 32v3h2v3.547h.004c.008.566.168 1.012.297 1.453.066.23.133.441.172.598.043.156.047.312.047.152 0 1.254 1.066 2.25 2.304 2.25h.27A10.94 10.94 0 0025 50.875v3.293c-1.438.34-4.637 1.172-7.875 2.469-2.172.87-4.367 1.949-6.082 3.289C9.324 61.266 8 62.949 8 65v5h48v-5c0-1.105-.395-2.102-1.02-3H72v-3.8c0-1.759-1.09-3.223-2.484-4.427-1.395-1.203-3.168-2.203-4.926-3.035A45.675 45.675 0 0058 48.25v-1.234c2.219-1.524 3.691-4.035 3.89-6.903h.137c1.102 0 2.051-.886 2.051-2.008 0 .18 0 .051.031-.074l.141-.472c.09-.301.18-.625.219-1.012H65V33h2v-3c0-1.48-.824-2.82-2.106-3.512A11.983 11.983 0 0056 16.387V16c0-1.102-.898-2-2-2h-2c-1.102 0-2 .898-2 2v.39a11.93 11.93 0 00-4.5 2.258c.406.532.79 1.082 1.129 1.657a10.025 10.025 0 013.477-1.86A1 1 0 0052 18.023V16h1.999v2.023c.016.543.457.977 1 .977.379 0 .727-.219.895-.559a9.977 9.977 0 016.89 7.582A1.003 1.003 0 0062 27c0 .55.45 1 1 1a.821.821 0 00.219-.027l.418.144A1.992 1.992 0 0165 30v1H51v2h9v3.89l1.336-.706a.236.236 0 01.074-.028c.086-.015.219-.031.352-.043l.355-.031c.051 0 .09-.004.117-.004h.004c.176 0 .262.102.262.207 0-.043-.066.363-.168.707-.05.172-.105.348-.148.52-.047.168-.106.273-.106.593 0-.003.012.008-.05.008H60V39.5c0 3.504-2.441 6.367-5.75 6.957l-.281.05-.215.196A1.114 1.114 0 0153 47c-.29 0-.543-.11-.754-.297l-.215-.195-.281-.051c-.574-.102-1.176-.203-1.75-.3V46h-2v3.95l.105.21S49.61 53 53 53c3.156 0 4.617-2.375 4.813-2.715.91.27 3.199.98 5.921 2.262 1.66.785 3.309 1.734 4.477 2.742C69.379 56.297 70 57.297 70 58.2V60H53.047a2.558 2.558 0 00-.09-.074c-1.715-1.34-3.91-2.418-6.082-3.29-3.238-1.296-6.438-2.128-7.875-2.468v-3.293A10.94 10.94 0 0042.906 43h.27c1.238 0 2.304-.996 2.304-2.25 0 .16.004.004.047-.152.04-.157.106-.367.172-.598.13-.441.29-.887.297-1.453H46V35h2v-3c0-1.453-.887-2.598-2.05-3.293-.145-6.535-4.786-11.86-10.95-13.234V15c0-1.094-.906-2-2-2h-2zm0 2h2v2.027c.016.54.457.973 1 .973a.998.998 0 00.926-.625c4.902 1.227 8.601 5.45 9.027 10.625A1.003 1.003 0 0043 29c0 .55.45 1 1 1a.85.85 0 00.223-.027l.43.148A1.98 1.98 0 0146 32v1H18v-1a1.98 1.98 0 011.348-1.875l.425-.152A1.002 1.002 0 0021 29c0-.535-.422-.973-.953-1 .426-5.176 4.125-9.395 9.027-10.625A.998.998 0 0031 17.027V15zm-1 5c-.55 0-1 .45-1 1s.45 1 1 1 1-.45 1-1-.45-1-1-1zm4 0c-.55 0-1 .45-1 1s.45 1 1 1 1-.45 1-1-.45-1-1-1zm17 1c-.55 0-1 .45-1 1s.45 1 1 1 1-.45 1-1-.45-1-1-1zm4 0c-.55 0-1 .45-1 1s.45 1 1 1 1-.45 1-1-.45-1-1-1zm-25 3c-.55 0-1 .45-1 1s.45 1 1 1 1-.45 1-1-.45-1-1-1zm4 0c-.55 0-1 .45-1 1s.45 1 1 1 1-.45 1-1-.45-1-1-1zm25 2c-.55 0-1 .45-1 1s.45 1 1 1 1-.45 1-1-.45-1-1-1zm-35 2c-.55 0-1 .45-1 1s.45 1 1 1 1-.45 1-1-.45-1-1-1zm16 0c-.55 0-1 .45-1 1s.45 1 1 1 1-.45 1-1-.45-1-1-1zm22 5h1v1.219a2.176 2.176 0 00-.762-.14h-.117a3.26 3.26 0 01-.121.01V33zm-42 2h1v1.031c-.047-.004-.102-.011-.14-.015a5.36 5.36 0 01-.165-.012c-.043 0-.02-.004-.133-.004-.19 0-.378.027-.562.066V35zm3 0h18v3.844l1.344-.703a.513.513 0 01.12-.043c.106-.016.259-.035.411-.051.152-.012.3-.027.418-.035.055-.004.102-.008.133-.012h.011c.344 0 .563.234.563.5 0 .016-.094.508-.219.938-.066.218-.129.433-.187.636-.055.203-.114.34-.114.676 0 .125-.101.25-.304.25H41v1.473c0 4.437-3.2 8.101-7.41 8.851l-.285.051-.211.195c-.301.27-.672.43-1.094.43-.422 0-.793-.16-1.094-.43l-.21-.195-.286-.05A8.984 8.984 0 0123 42.472V41h-2.176c-.203 0-.305-.125-.305-.25 0-.336-.058-.473-.113-.676a46.247 46.247 0 00-.187-.636A9.93 9.93 0 0120 38.5c0-.266.219-.5.563-.5h.007c.032.004.082.008.137.012.117.008.266.023.418.035.152.016.305.035.41.05.055.012.117.04.133.044l1.332.703V35zm20 0h1v1.066a2.698 2.698 0 00-.563-.066c-.113 0-.09.004-.132.004a5.36 5.36 0 01-.164.012L43 36.03V35zm13.5 0a1.5 1.5 0 100 3 1.5 1.5 0 000-3zm-29 3a1.5 1.5 0 100 3 1.5 1.5 0 000-3zm9 0a1.5 1.5 0 100 3 1.5 1.5 0 000-3zM56 48.04v1.362c-.117.23-.855 1.598-3 1.598s-2.883-1.367-3-1.598v-1.215c.477.079.73.122 1.172.2.512.37 1.14.613 1.828.613.7 0 1.336-.246 1.852-.629A9.25 9.25 0 0056 48.04zM27 52.2c.871.448 1.805.792 2.797.995.61.477 1.36.805 2.203.805.844 0 1.594-.328 2.203-.805A10.834 10.834 0 0037 52.2v3.457c-.121.242-1.422 2.746-5 2.746-3.578 0-4.879-2.504-5-2.746V52.2zM53 56c-.55 0-1 .45-1 1s.45 1 1 1 1-.45 1-1-.45-1-1-1zm4 0c-.55 0-1 .45-1 1s.45 1 1 1 1-.45 1-1-.45-1-1-1zm4 0c-.55 0-1 .45-1 1s.45 1 1 1 1-.45 1-1-.45-1-1-1zm4 0c-.55 0-1 .45-1 1s.45 1 1 1 1-.45 1-1-.45-1-1-1zm-39.988.227l.093.191S27.18 60.402 32 60.402c4.82 0 6.895-3.984 6.895-3.984l.093-.191c1.52.375 4.29 1.12 7.137 2.265 2.078.832 4.133 1.864 5.605 3.008C53.2 62.648 54 63.828 54 65v3H10v-3c0-1.172.8-2.352 2.27-3.5 1.472-1.145 3.527-2.176 5.605-3.008 2.848-1.144 5.617-1.89 7.137-2.265zM14 64c-.55 0-1 .45-1 1s.45 1 1 1 1-.45 1-1-.45-1-1-1zm4 0c-.55 0-1 .45-1 1s.45 1 1 1 1-.45 1-1-.45-1-1-1zm4 0c-.55 0-1 .45-1 1s.45 1 1 1 1-.45 1-1-.45-1-1-1zm4 0c-.55 0-1 .45-1 1s.45 1 1 1 1-.45 1-1-.45-1-1-1zm4 0c-.55 0-1 .45-1 1s.45 1 1 1 1-.45 1-1-.45-1-1-1zm4 0c-.55 0-1 .45-1 1s.45 1 1 1 1-.45 1-1-.45-1-1-1zm4 0c-.55 0-1 .45-1 1s.45 1 1 1 1-.45 1-1-.45-1-1-1zm4 0c-.55 0-1 .45-1 1s.45 1 1 1 1-.45 1-1-.45-1-1-1zm4 0c-.55 0-1 .45-1 1s.45 1 1 1 1-.45 1-1-.45-1-1-1zm4 0c-.55 0-1 .45-1 1s.45 1 1 1 1-.45 1-1-.45-1-1-1z" fill="#E4B564"/></svg>
